X: 5985
T: Canada's 150th Birthday Party
R: jig
M: 6/8
K: Dmajor
|B2c|dBc dcB|ABc def|gbd cfe|(d3 d2 d)|
ded cBA|{Bc}BAF A2 (A,|A,)DF BAF|{A}[G3B3] BAB|
cdc BcB|AGE C2 B,|A,CE AcB|{F}A3 ABc|
d z2 {ed}c z A|{Bc}BAF A2 [DA]|fed ^Aed|B3 B2 c|
dBc dcB|ABc def|gBd cfe|d3 {e}dcd|
eAA fAA|{ga}gfg ecA|def =fba|(f3 f)cd|
eAA fAA|{ga}gfg ecA|DE^F =FBA|(F3 F)cd|
eAA fAA|{ga}gfg ecA|def =fba|f3 fbc'|
(d'3 d')fg|(a3 a)ef|gBd cfe|(d3 d2 d)||

